X:1
T:Ring Out, O Bells, in Gladness
T:Ring Out, O Bells, in Gladness
T:Caleb Simper
T:Amy S. Woods, 1898
T:Public Domain Courtesy of the Cyber Hymnal™
T:Public Domain Courtesy of the Cyber Hymnal™
C:Caleb Simper
Z:Public Domain
Z:Courtesy of the Cyber Hymnal™
%%score ( 1 2 ) ( 3 4 )
L:1/8
Q:1/4=110
M:4/4
K:D
V:1 treble 
V:2 treble 
V:3 bass 
V:4 bass 
V:1
 [FA]2 | [Fd]2 [Fd]2 [^Ec]2 [EB]2 | [FA]4 [EG]2 [DA]2 | [DB]2 [DB]2 [Gc]2 [Fd]2 | [Ec]6 [GA]2 | %5
w: 1.~Ring|out, O bells, in|glad- ness! For|Christ the Lord is|born; Far|
w: 2.~Bear,|O ye winds, the|sto- ry, And|tell it far and|near; Our|
w: 3.~To|wake- ful shep- herds|watch- ing, The|news was told last|night, By|
w: 4.~All|glo- ry in the|high- est! And|on the earth be|peace; Loud|
 [Fd]2 [Fd]2 [^Ec]2 [EB]2 | [FA]4 [DF]2 [DA]2 | [DB]2 [DG]2 [DF]2 [CE]2 | D6 [DF]2 | %9
w: ban- ish earth- ly|sad- ness On|this His birth- day|morn. Ap-|
w: Day- star now has|ris- en, The|win- try world to|cheer. To|
w: glor- ious an- gels|wing- ing To|earth their joy- ful|flight. They|
w: swells the Christ- mas|an- them, Which|ne- ver- more shall|cease. For|
 [DF]2 [DF]2 [CE]2 [DF]2 | G4 [DF]2 F2 | [FB]2 [Ec]2 [Dd]2 [Fd]2 | [^Ec]6 [EB]2 | %13
w: proach, ye faith- ful|peo- ple, Un-|to His man- ger|shrine, Where|
w: those who sit in|dark- ness His|glor- ious light has|come, To|
w: sang in sweet- est|num- bers The|song we sing this|morn— “To|
w: Heaven and earth this|morn- ing Are|joined in love di-|vine, By|
 [CA]2 [DB]2 [Ec]2 [Ed]2 | [Ee]4 [Ec]2 [EA]2 | [EF]2 [DB]2 [DB]2 (A^G) | [CA]6 z2 || %17
w: lies the in- fant|Sav- ior, True|God, and Man di- *|vine.|
w: guide them through life’s|sha- dows Up|to their Fa- ther’s *|home.|
w: you in Da- vid’s|ci- ty, A|Sav- ior— Christ— is *|born!”|
w: Him who in a|sta- ble Is|born of Da- vid’s *|line.|
"^Refrain" [Ge]4 [GB]2 [Gc]2 | [Fd]6 z2 | [Ae]2 [Ae]2 [Ad]2 [Gc]2 | [Fd]6 [Dd]2 | B2 G2 E2 c2 | %22
w: |||||
w: Ring out, O|bells!|Ring, tri- umph- ant|ring! This|is the birth- day|
w: |||||
w: |||||
 A2 F2 D2 [DF]2 | [DG]2 [DB]2 [DA]2 [Gc]2 | [Fd]6 [FA]2 | [GB]2 [Ec]2 [Dd]2 ([FA]2"^Organ" | %26
w: ||||
w: of our king; O|bells, tri- umph- ant|ring! Ring|out, O bells! ~|
w: ||||
w: ||||
 [GB]2 [Ec]2 [Dd]2) d2 | A2 F2 E2 D2 | [CA]6 z2 | [Ge]4 [GB]2 [Gc]2 | [Fd]6 z2 | %31
w: |||||
w: * * * O|bells, tri- umph- ant|ring!|Ring out, O|bells!|
w: |||||
w: |||||
 [Ae]2 [Ae]2 [Ad]2 [Gc]2 | [Fd]6 |] %33
w: ||
w: Ring, tri- umph- ant|ring!|
w: ||
w: ||
V:2
 x2 | x8 | x8 | x8 | x8 | x8 | x8 | x8 | D6 x2 | x8 | (D2 C2) F2 x2 | x8 | x8 | x8 | x8 | x6 D2 | %16
 x8 || x8 | x8 | x8 | x8 | B2 G2 E2 c2 | A2 F2 D2 x2 | x8 | x8 | x8 | x6 d2 | A2 F2 E2 D2 | x8 | %29
 x8 | x8 | x8 | x6 |] %33
V:3
 [D,A,]2 | [D,A,]2 [D,A,]2 [D,^G,]2 [D,G,]2 | [D,A,]4 [D,A,]2 [D,F,]2 | G,2 G,2 [E,G,]2 [D,A,]2 | %4
 [A,,A,]6 [A,C]2 | [D,D]2 [D,A,]2 [D,^G,]2 [D,G,]2 | [D,A,]4 [D,A,]2 [D,F,]2 | %7
 G,2 [E,B,]2 A,2 [A,,G,]2 | [D,F,]6 [D,A,]2 | [D,A,]2 [D,A,]2 [G,A,]2 [F,A,]2 | %10
 (B,2 G,2) [D,A,]2 F,2 | [D,B,]2 [C,^A,]2 [B,,B,]2 [B,,=A,]2 | [C,^G,]6 [C,G,]2 | %13
 [F,A,]2 [F,A,]2 [E,A,]2 [D,^G,]2 | [C,A,]4 [A,,A,]2 [C,A,]2 | [D,A,]2 [B,,A,]2 [E,^G,]2 (A,B,) | %16
 [A,,A,]6 z2 || [A,C]4 [A,D]2 [A,E]2 | D6 B,2 | [A,C]2 [G,C]2 [F,D]2 [E,E]2 | [D,A,]6 D2 | %21
 B,2 G,2 E,2 C2 | A,2 F,2 D,2 [D,A,]2 | [G,B,]2 G,2 [F,A,]2 [E,A,]2 | [D,A,]6 z2 | z8 | z6 D2 | %27
 A,2 F,2 E,2 D,2 | [A,,A,]6 z2 | [A,C]4 [A,D]2 [A,E]2 | D6 B,2 | [A,C]2 [G,C]2 [F,D]2 [E,E]2 | %32
 [D,A,]6 |] %33
V:4
 x2 | x8 | x8 | G,2 G,2 x4 | x8 | x8 | x8 | G,2 A,2 x4 | x8 | x8 | E,4 F,2 x2 | x8 | x8 | x8 | x8 | %15
 x6 E,2 | x8 || x8 | D,2 D2 C2 x2 | x8 | x6 D2 | B,2 G,2 E,2 C2 | A,2 F,2 D,2 x2 | x2 G,2 x4 | x8 | %25
 x8 | x6 D2 | A,2 F,2 E,2 D,2 | x8 | x8 | D,2 D2 C2 x2 | x8 | x6 |] %33

